images/logo_clutch.svg

<svg width="84" height="50" fill="none" xmlns="http://www.w3.org/2000/svg"><path fill-rule="evenodd" clip-rule="evenodd" d="M22.3266 13.0747h3.7671v23.2577h-3.7671V13.0747Zm16.8703 15.8841c0 3.6033-2.9481 3.9309-3.9308 3.9309-2.293 0-2.6206-2.1292-2.6206-3.2757v-9.0083h-3.7671v8.8445c0 2.1292.6551 4.0946 1.9654 5.2411 1.1465 1.1465 2.6206 1.6379 4.4223 1.6379 1.3102 0 2.9481-.3276 3.9308-1.3103v1.3103h3.7671V20.6057h-3.7671v8.3531Zm7.3703-14.0851h3.7671v5.7326h2.7844v3.6033h-2.7844v12.1202h-3.7671V24.2096h-2.7843v-3.6033h2.7843v-5.7326Zm18.3443 16.7086c-.8189.6552-1.9654 1.1465-3.1119 1.1465-2.6206 0-4.4222-1.9654-4.4222-4.586 0-2.6206 1.8016-4.4222 4.4222-4.4222 1.1465 0 2.293.3275 3.1119 1.1465l.4914.4913 2.6206-2.4568-.6552-.4913c-1.4741-1.3103-3.4395-2.1293-5.5687-2.1293-4.586 0-8.0255 3.4396-8.0255 8.0256s3.4395 8.0255 8.0255 8.0255c2.1292 0 4.0946-.8189 5.5687-2.1292l.6552-.4914-2.6206-2.6206-.4914.4914Zm12.2836-11.301c1.8017 0 2.9482.4914 4.0947 1.6379 1.1465 1.1465 1.6378 3.1119 1.6378 5.2412v9.0082h-3.767v-9.172c0-.0688.0005-.1411.0012-.2163v-.0001c.0096-1.1781.0249-3.0594-2.1305-3.0594-.9827 0-3.4395.3276-3.4395 3.9309v8.6807h-3.7671V13.0747h3.7671v8.5169c.9827-.9827 2.293-1.3103 3.6033-1.3103ZM61.6353 30.9264c1.4473 0 2.6206-1.1733 2.6206-2.6206s-1.1733-2.6206-2.6206-2.6206-2.6206 1.1733-2.6206 2.6206 1.1733 2.6206 2.6206 2.6206Zm-49.9545 1.8023c2.1292 0 4.0946-.8189 5.4049-2.1292l.4914-.4913 2.4568 2.4568-.4914.4913c-1.9654 2.1292-4.9136 3.2757-7.8617 3.2757-6.06012 0-10.64613-4.9135-10.64613-11.3012S5.62068 13.7295 11.8446 13.8933c2.9481 0 5.7325 1.1465 7.8617 3.2757l.4914.4914-2.4568 2.4568-.4914-.4914c-1.4741-1.4741-3.4395-2.293-5.4049-2.293-4.25849 0-7.20664 3.2757-7.20664 7.698 0 4.4222 2.94815 7.6979 7.04284 7.6979Z" fill="#fff"/></svg>

<svg width="84" height="50" viewBox="0 0 84 50" fill="none" xmlns="http://www.w3.org/2000/svg">
<path fill-rule="evenodd" clip-rule="evenodd" d="M22.3266 13.0747H26.0937V36.3324H22.3266V13.0747ZM39.1969 28.9588C39.1969 32.5621 36.2488 32.8897 35.2661 32.8897C32.9731 32.8897 32.6455 30.7605 32.6455 29.614V20.6057H28.8784V29.4502C28.8784 31.5794 29.5335 33.5448 30.8438 34.6913C31.9903 35.8378 33.4644 36.3292 35.2661 36.3292C36.5763 36.3292 38.2142 36.0016 39.1969 35.0189V36.3292H42.964V20.6057H39.1969V28.9588ZM46.5672 14.8737H50.3343V20.6063H53.1187V24.2096H50.3343V36.3298H46.5672V24.2096H43.7829V20.6063H46.5672V14.8737ZM64.9115 31.5823C64.0926 32.2375 62.9461 32.7288 61.7996 32.7288C59.179 32.7288 57.3774 30.7634 57.3774 28.1428C57.3774 25.5222 59.179 23.7206 61.7996 23.7206C62.9461 23.7206 64.0926 24.0481 64.9115 24.8671L65.4029 25.3584L68.0235 22.9016L67.3683 22.4103C65.8942 21.1 63.9288 20.281 61.7996 20.281C57.2136 20.281 53.7741 23.7206 53.7741 28.3066C53.7741 32.8926 57.2136 36.3321 61.7996 36.3321C63.9288 36.3321 65.8942 35.5132 67.3683 34.2029L68.0235 33.7115L65.4029 31.0909L64.9115 31.5823ZM77.1951 20.2813C78.9968 20.2813 80.1433 20.7727 81.2898 21.9192C82.4363 23.0657 82.9276 25.0311 82.9276 27.1604V36.1686H79.1606V26.9966C79.1606 26.9278 79.1611 26.8555 79.1618 26.7803V26.7802C79.1714 25.6021 79.1867 23.7208 77.0313 23.7208C76.0486 23.7208 73.5918 24.0484 73.5918 27.6517V36.3324H69.8247V13.0747H73.5918V21.5916C74.5745 20.6089 75.8848 20.2813 77.1951 20.2813ZM61.6353 30.9264C63.0826 30.9264 64.2559 29.7531 64.2559 28.3058C64.2559 26.8585 63.0826 25.6852 61.6353 25.6852C60.188 25.6852 59.0147 26.8585 59.0147 28.3058C59.0147 29.7531 60.188 30.9264 61.6353 30.9264ZM11.6808 32.7287C13.81 32.7287 15.7754 31.9098 17.0857 30.5995L17.5771 30.1082L20.0339 32.565L19.5425 33.0563C17.5771 35.1855 14.6289 36.332 11.6808 36.332C5.62068 36.332 1.03467 31.4185 1.03467 25.0308C1.03467 18.6431 5.62068 13.7295 11.8446 13.8933C14.7927 13.8933 17.5771 15.0398 19.7063 17.169L20.1977 17.6604L17.7409 20.1172L17.2495 19.6258C15.7754 18.1517 13.81 17.3328 11.8446 17.3328C7.58611 17.3328 4.63796 20.6085 4.63796 25.0308C4.63796 29.453 7.58611 32.7287 11.6808 32.7287Z" fill="white"/>
</svg>
